usr/share/icons/biglinux-icons-material/scalable/apps/transmission.svg

<svg xmlns="http://www.w3.org/2000/svg" xml:space="preserve" width="24" height="24" viewBox="0 0 6.35 6.35"><defs><radialGradient id="a" cx="0" cy="0" r="1" fx="0" fy="0" gradientTransform="matrix(0 16.5 -16.5 0 9 .75)" gradientUnits="userSpaceOnUse" spreadMethod="pad"><stop offset="0" style="stop-opacity:1;stop-color:#fff"/><stop offset="1" style="stop-opacity:1;stop-color:#bebebe"/></radialGradient><radialGradient id="b" cx="0" cy="0" r="1" fx="0" fy="0" gradientTransform="matrix(0 8.25 -8.25 0 9 .75)" gradientUnits="userSpaceOnUse" spreadMethod="pad"><stop offset="0" style="stop-opacity:1;stop-color:#ff5151"/><stop offset="1" style="stop-opacity:1;stop-color:#cb4141"/></radialGradient><clipPath id="c" clipPathUnits="userSpaceOnUse"><path d="M0 0h49v49H0Z"/></clipPath></defs><path d="M7.195.836c.09 0 .176-.012.258-.035a23.86 23.86 0 0 1 3.231.008 10.26 10.26 0 0 1 2.836.636c1.519.625 2.558 1.711 3.121 3.254.316.93.507 1.887.566 2.867a21.227 21.227 0 0 1-.086 3.696 8.976 8.976 0 0 1-.672 2.488c-.637 1.383-1.672 2.336-3.101 2.859a11.693 11.693 0 0 1-3.575.618 15.998 15.998 0 0 1-4.089-.309c-2.481-.551-4.016-2.066-4.594-4.543a14.244 14.244 0 0 1-.336-3.383c-.027-1.211.101-2.41.387-3.59.609-2.312 2.078-3.746 4.406-4.3A10.27 10.27 0 0 1 7.195.836Z" style="fill:url(#a);fill-rule:evenodd;stroke:none" transform="scale(.35277)"/><path d="M7.195.836c.09 0 .176-.012.258-.035a23.86 23.86 0 0 1 3.231.008 10.26 10.26 0 0 1 2.836.636c1.519.625 2.558 1.711 3.121 3.254.316.93.507 1.887.566 2.867a21.227 21.227 0 0 1-.086 3.696 8.976 8.976 0 0 1-.672 2.488c-.637 1.383-1.672 2.336-3.101 2.859a11.693 11.693 0 0 1-3.575.618 15.998 15.998 0 0 1-4.089-.309c-2.481-.551-4.016-2.066-4.594-4.543a14.244 14.244 0 0 1-.336-3.383c-.027-1.211.101-2.41.387-3.59.609-2.312 2.078-3.746 4.406-4.3A10.27 10.27 0 0 1 7.195.836Z" style="fill:url(#b);fill-rule:evenodd;stroke:none" transform="scale(.35277)"/><circle cx="3.175" cy="3.175" r="1.984" fill="#e6e6e6" opacity=".35" style="stroke-width:.277763;paint-order:stroke markers fill"/><g clip-path="url(#c)" opacity=".15" transform="matrix(.27507 0 0 .27507 .7 .7)"><path d="M14.984 9A5.984 5.984 0 1 1 3.016 9a5.984 5.984 0 0 1 11.968 0z" style="fill:#000;fill-opacity:1;fill-rule:nonzero;stroke:none"/></g><path d="M2.877 2.034a.1.1 0 0 0-.1.1v.991h-.793l1.191 1.19 1.19-1.19h-.793v-.992a.1.1 0 0 0-.1-.099z" style="fill:#fff;fill-opacity:1;stroke-width:.37497;paint-order:stroke markers fill"/></svg>

<?xml version="1.0" encoding="UTF-8" standalone="no"?>
<svg
   width="24"
   height="24"
   viewBox="0 0 6.349875 6.349875"
   version="1.1"
   id="svg5846"
   sodipodi:docname="tremotesf.svg"
   xml:space="preserve"
   inkscape:version="1.2.2 (b0a8486541, 2022-12-01)"
   xmlns:inkscape="http://www.inkscape.org/namespaces/inkscape"
   xmlns:sodipodi="http://sodipodi.sourceforge.net/DTD/sodipodi-0.dtd"
   xmlns="http://www.w3.org/2000/svg"
   xmlns:svg="http://www.w3.org/2000/svg"><defs
     id="defs5850"><radialGradient
       id="paint0_radial_2_194"
       cx="0"
       cy="0"
       r="1"
       gradientUnits="userSpaceOnUse"
       gradientTransform="matrix(0,5.8207157,-5.8207157,0,3.1749375,0.26458845)"><stop
         stop-color="white"
         id="stop38706" /><stop
         offset="1"
         stop-color="#BEBEBE"
         id="stop38708" /></radialGradient><radialGradient
       id="paint1_radial_2_194"
       cx="0"
       cy="0"
       r="1"
       gradientUnits="userSpaceOnUse"
       gradientTransform="matrix(0,2.910358,-2.910358,0,3.1749347,0.26458351)"><stop
         stop-color="#C50110"
         id="stop38711"
         offset="0"
         style="stop-color:#ff5151;stop-opacity:1;" /><stop
         offset="1"
         stop-color="#7B0619"
         id="stop38713"
         style="stop-color:#cb4141;stop-opacity:1;" /></radialGradient><radialGradient
       id="paint2_radial_2_194"
       cx="0"
       cy="0"
       r="1"
       gradientUnits="userSpaceOnUse"
       gradientTransform="matrix(0,23.334927,-21.776684,0,-21.920227,-0.0429884)"><stop
         stop-color="#6DD4FF"
         id="stop38716" /><stop
         offset="1"
         stop-color="#0076D4"
         id="stop38718" /></radialGradient><radialGradient
       fx="0"
       fy="0"
       cx="0"
       cy="0"
       r="1"
       gradientUnits="userSpaceOnUse"
       gradientTransform="matrix(0,16.499991,-16.499991,0,9,0.750029)"
       spreadMethod="pad"
       id="radialGradient41211"><stop
         style="stop-opacity:1;stop-color:#ffffff"
         offset="0"
         id="stop41207" /><stop
         style="stop-opacity:1;stop-color:#bebebe"
         offset="1"
         id="stop41209" /></radialGradient><radialGradient
       fx="0"
       fy="0"
       cx="0"
       cy="0"
       r="1"
       gradientUnits="userSpaceOnUse"
       gradientTransform="matrix(0,8.249996,-8.249996,0,8.999992,0.750015)"
       spreadMethod="pad"
       id="radialGradient41229"><stop
         style="stop-opacity:1;stop-color:#ff5151"
         offset="0"
         id="stop41225" /><stop
         style="stop-opacity:1;stop-color:#cb4141"
         offset="1"
         id="stop41227" /></radialGradient><clipPath
       clipPathUnits="userSpaceOnUse"
       id="clipPath41239"><path
         d="M 0,0 H 49 V 49 H 0 Z"
         id="path41237" /></clipPath><clipPath
       clipPathUnits="userSpaceOnUse"
       id="clipPath41255"><path
         d="M 0,0 H 49 V 49 H 0 Z"
         id="path41253" /></clipPath><clipPath
       clipPathUnits="userSpaceOnUse"
       id="clipPath41275"><path
         d="M 0,0 H 49 V 49 H 0 Z"
         id="path41273" /></clipPath><clipPath
       clipPathUnits="userSpaceOnUse"
       id="clipPath41291"><path
         d="M 0,0 H 49 V 49 H 0 Z"
         id="path41289" /></clipPath><radialGradient
       fx="0"
       fy="0"
       cx="0"
       cy="0"
       r="1"
       gradientUnits="userSpaceOnUse"
       gradientTransform="matrix(0,16.499991,-16.499991,0,9,0.750029)"
       spreadMethod="pad"
       id="radialGradient41211-7"><stop
         style="stop-opacity:1;stop-color:#ffffff"
         offset="0"
         id="stop41207-8" /><stop
         style="stop-opacity:1;stop-color:#bebebe"
         offset="1"
         id="stop41209-4" /></radialGradient><radialGradient
       fx="0"
       fy="0"
       cx="0"
       cy="0"
       r="1"
       gradientUnits="userSpaceOnUse"
       gradientTransform="matrix(0,8.249996,-8.249996,0,8.999992,0.750015)"
       spreadMethod="pad"
       id="radialGradient41229-5"><stop
         style="stop-opacity:1;stop-color:#ff5151"
         offset="0"
         id="stop41225-0" /><stop
         style="stop-opacity:1;stop-color:#cb4141"
         offset="1"
         id="stop41227-3" /></radialGradient><clipPath
       clipPathUnits="userSpaceOnUse"
       id="clipPath41239-6"><path
         d="M 0,0 H 49 V 49 H 0 Z"
         id="path41237-1" /></clipPath><clipPath
       clipPathUnits="userSpaceOnUse"
       id="clipPath41255-0"><path
         d="M 0,0 H 49 V 49 H 0 Z"
         id="path41253-6" /></clipPath><clipPath
       clipPathUnits="userSpaceOnUse"
       id="clipPath41275-3"><path
         d="M 0,0 H 49 V 49 H 0 Z"
         id="path41273-2" /></clipPath><clipPath
       clipPathUnits="userSpaceOnUse"
       id="clipPath41291-0"><path
         d="M 0,0 H 49 V 49 H 0 Z"
         id="path41289-6" /></clipPath></defs><sodipodi:namedview
     id="namedview5848"
     pagecolor="#ffffff"
     bordercolor="#000000"
     borderopacity="0.25"
     inkscape:showpageshadow="2"
     inkscape:pageopacity="0.0"
     inkscape:pagecheckerboard="0"
     inkscape:deskcolor="#d1d1d1"
     showgrid="false"
     inkscape:zoom="9.656427"
     inkscape:cx="-2.1747174"
     inkscape:cy="19.624236"
     inkscape:window-width="2560"
     inkscape:window-height="1000"
     inkscape:window-x="1680"
     inkscape:window-y="0"
     inkscape:window-maximized="1"
     inkscape:current-layer="svg5846" /><g
     id="g41197"
     transform="matrix(0.35277082,0,0,0.35277082,-1.2e-4,-9.2e-6)"><g
       id="g41199"><g
         id="g41205"><path
           d="m 7.195,0.836 c 0.09,0 0.176,-0.012 0.258,-0.035 1.078,-0.071 2.156,-0.067 3.231,0.008 0.976,0.078 1.921,0.289 2.836,0.636 1.519,0.625 2.558,1.711 3.121,3.254 0.316,0.93 0.507,1.887 0.566,2.867 0.078,1.235 0.051,2.465 -0.086,3.696 -0.105,0.863 -0.328,1.691 -0.672,2.488 -0.637,1.383 -1.672,2.336 -3.101,2.859 C 12.191,17 11,17.207 9.773,17.227 8.398,17.301 7.035,17.195 5.684,16.918 3.203,16.367 1.668,14.852 1.09,12.375 0.844,11.262 0.73,10.133 0.754,8.992 0.727,7.781 0.855,6.582 1.141,5.402 1.75,3.09 3.219,1.656 5.547,1.102 6.09,0.969 6.641,0.879 7.195,0.836 Z"
           style="fill:url(#radialGradient41211-7);fill-rule:evenodd;stroke:none"
           id="path41213" /></g></g></g><g
     id="g41215"
     transform="matrix(0.35277082,0,0,0.35277082,-1.2e-4,-9.2e-6)"><g
       id="g41217"><g
         id="g41223"><path
           d="m 7.195,0.836 c 0.09,0 0.176,-0.012 0.258,-0.035 1.078,-0.071 2.156,-0.067 3.231,0.008 0.976,0.078 1.921,0.289 2.836,0.636 1.519,0.625 2.558,1.711 3.121,3.254 0.316,0.93 0.507,1.887 0.566,2.867 0.078,1.235 0.051,2.465 -0.086,3.696 -0.105,0.863 -0.328,1.691 -0.672,2.488 -0.637,1.383 -1.672,2.336 -3.101,2.859 C 12.191,17 11,17.207 9.773,17.227 8.398,17.301 7.035,17.195 5.684,16.918 3.203,16.367 1.668,14.852 1.09,12.375 0.844,11.262 0.73,10.133 0.754,8.992 0.727,7.781 0.855,6.582 1.141,5.402 1.75,3.09 3.219,1.656 5.547,1.102 6.09,0.969 6.641,0.879 7.195,0.836 Z"
           style="fill:url(#radialGradient41229-5);fill-rule:evenodd;stroke:none"
           id="path41231" /></g></g></g><g
     id="g6821"><circle
       cx="3.1749375"
       cy="3.1749375"
       r="1.9843359"
       fill="#e6e6e6"
       opacity="0.35"
       style="stroke-width:0.277763;paint-order:stroke markers fill"
       id="circle5838" /><g
       id="g41233"
       transform="matrix(0.27506704,0,0,0.27506704,0.699214,0.6993248)"><g
         id="g41235" /><g
         id="g41247"><g
           clip-path="url(#clipPath41239-6)"
           opacity="0.15"
           id="g41245"><g
             id="g41243"><path
               d="m 14.984,9 c 0,3.305 -2.679,5.984 -5.984,5.984 C 5.695,14.984 3.016,12.305 3.016,9 3.016,5.695 5.695,3.016 9,3.016 c 3.305,0 5.984,2.679 5.984,5.984 z"
               style="fill:#000000;fill-opacity:1;fill-rule:nonzero;stroke:none"
               id="path41241" /></g></g></g></g><path
       id="rect6325"
       style="fill:#ffffff;fill-opacity:1;stroke-width:0.37497;paint-order:stroke markers fill"
       d="m 2.8772144,2.0340371 c -0.055046,0 -0.099403,0.044353 -0.099403,0.099403 v 0.991893 H 1.9843359 L 3.1750344,4.3158383 4.365539,3.1253331 H 3.5716757 V 2.1334396 c 0,-0.055049 -0.044352,-0.099403 -0.099403,-0.099403 z" /></g></svg>
